;FLAVOR:Marlin
;TIME:13376
;Filament used: 17.4699m
;Layer height: 0.2
;Generated with Cura_SteamEngine 3.3.0
M104 S195
M109 S195
M82 ;absolute extrusion mode
G28 ;Home
G1 Z15.0 F6000 ;Move the platform down 15mm
;Prime the extruder
G92 E0
G1 F200 E3
G92 E0
G92 E0
G1 F1500 E-6.5
;LAYER_COUNT:56
;LAYER:0
M107
G0 F3600 X46.82 Y45.184 Z0.3
;TYPE:SKIRT
G1 F1500 E0
G1 F1800 X43.015 Y49.111 E0.30076
G1 X39.431 Y53.255 E0.60212
G1 X36.091 Y57.592 E0.90322
G1 X32.998 Y62.111 E1.20442
G1 X30.171 Y66.795 E1.50535
G1 X27.609 Y71.634 E1.80652
G1 X25.324 Y76.618 E2.1081
G1 X23.326 Y81.711 E2.40902
G1 X22.18 Y85.051 E2.60324
G1 X21.934 Y85.597 E2.63618
G1 X20.904 Y87.407 E2.75073
G1 X20.512 Y87.953 E2.7877
G1 X19.119 Y89.518 E2.90294
G1 X18.622 Y89.971 E2.93993
G1 X16.943 Y91.205 E3.05454
G1 X16.365 Y91.543 E3.09137
G1 X14.46 Y92.405 E3.20638
G1 X13.821 Y92.616 E3.2434
G1 X11.781 Y93.061 E3.35824
G1 X11.099 Y93.135 E3.39598
G1 X-10.984 Y93.146 E4.61063
G1 X-11.636 Y93.079 E4.64668
G1 X-13.686 Y92.655 E4.76183
G1 X-14.324 Y92.452 E4.79865
G1 X-16.233 Y91.616 E4.91328
G1 X-16.818 Y91.283 E4.95031
G1 X-18.515 Y90.064 E5.06523
G1 X-19.017 Y89.616 E5.10224
G1 X-20.418 Y88.075 E5.2168
G1 X-20.813 Y87.538 E5.25346
G1 X-21.866 Y85.74 E5.36807
G1 X-22.119 Y85.198 E5.40097
G1 X-24.188 Y79.403 E5.73943
G1 X-25.186 Y76.941 E5.88555
G1 X-27.474 Y71.912 E6.18945
G1 X-30.011 Y67.079 E6.48968
G1 X-32.845 Y62.354 E6.79274
G1 X-34.316 Y60.119 E6.93991
G1 X-37.536 Y55.656 E7.24262
G1 X-40.991 Y51.398 E7.54422
G1 X-44.67 Y47.351 E7.84506
G1 X-48.571 Y43.522 E8.14572
G1 X-52.719 Y39.886 E8.44912
G1 X-54.813 Y38.205 E8.59682
G1 X-59.24 Y34.945 E8.89922
G1 X-63.821 Y31.956 E9.20009
G1 X-68.567 Y29.228 E9.50119
G1 X-73.454 Y26.777 E9.80191
G1 X-78.506 Y24.59 E10.10471
G1 X-81.057 Y23.611 E10.255
G1 X-83.984 Y22.589 E10.42553
G1 X-84.211 Y22.5 E10.43894
G1 X-86.23 Y21.618 E10.56013
G1 X-86.818 Y21.283 E10.59735
G1 X-88.515 Y20.064 E10.71228
G1 X-89.017 Y19.616 E10.74928
G1 X-90.418 Y18.075 E10.86384
G1 X-90.813 Y17.537 E10.90055
G1 X-91.867 Y15.736 E11.01533
G1 X-92.143 Y15.127 E11.05211
G1 X-92.802 Y13.143 E11.1671
G1 X-92.949 Y12.46 E11.20553
G1 X-93.191 Y10.113 E11.3353
G1 X-93.208 Y9.78 E11.35364
G1 X-93.183 Y-10.235 E12.45455
G1 X-93.164 Y-10.576 E12.47333
G1 X-92.971 Y-12.361 E12.57209
G1 X-92.838 Y-12.991 E12.6075
G1 X-92.202 Y-14.986 E12.72268
G1 X-91.933 Y-15.6 E12.75955
G1 X-90.903 Y-17.408 E12.874
G1 X-90.512 Y-17.953 E12.9109
G1 X-89.119 Y-19.518 E13.02614
G1 X-88.622 Y-19.971 E13.06313
G1 X-86.943 Y-21.205 E13.17774
G1 X-86.339 Y-21.554 E13.21611
G1 X-84.209 Y-22.495 E13.34419
G1 X-84.009 Y-22.576 E13.35606
G1 X-78.776 Y-24.478 E13.66232
G1 X-73.747 Y-26.636 E13.96332
G1 X-68.846 Y-29.075 E14.26444
G1 X-64.086 Y-31.791 E14.56588
G1 X-59.5 Y-34.761 E14.8664
G1 X-55.085 Y-37.99 E15.16726
G1 X-50.842 Y-41.479 E15.46942
G1 X-46.82 Y-45.184 E15.7702
G1 X-43.015 Y-49.111 E16.07096
G1 X-39.431 Y-53.255 E16.37232
G1 X-36.091 Y-57.592 E16.67342
G1 X-32.998 Y-62.111 E16.97462
G1 X-30.171 Y-66.795 E17.27555
G1 X-27.609 Y-71.634 E17.57672
G1 X-25.324 Y-76.618 E17.8783
G1 X-23.326 Y-81.711 E18.17922
G1 X-22.18 Y-85.051 E18.37344
G1 X-21.934 Y-85.597 E18.40638
G1 X-20.904 Y-87.407 E18.52093
G1 X-20.512 Y-87.953 E18.5579
G1 X-19.119 Y-89.518 E18.67314
G1 X-18.622 Y-89.971 E18.71013
G1 X-16.943 Y-91.205 E18.82474
G1 X-16.365 Y-91.543 E18.86157
G1 X-14.46 Y-92.405 E18.97658
G1 X-13.821 Y-92.616 E19.0136
G1 X-11.781 Y-93.061 E19.12844
G1 X-11.099 Y-93.135 E19.16618
G1 X10.984 Y-93.146 E20.38083
G1 X11.636 Y-93.079 E20.41688
G1 X13.686 Y-92.655 E20.53203
G1 X14.324 Y-92.452 E20.56885
G1 X16.233 Y-91.616 E20.68348
G1 X16.818 Y-91.283 E20.72051
G1 X18.515 Y-90.064 E20.83543
G1 X19.017 Y-89.616 E20.87244
G1 X20.418 Y-88.075 E20.987
G1 X20.813 Y-87.538 E21.02366
G1 X21.866 Y-85.74 E21.13827
G1 X22.119 Y-85.198 E21.17117
G1 X24.188 Y-79.403 E21.50963
G1 X25.186 Y-76.941 E21.65575
G1 X27.474 Y-71.912 E21.95965
G1 X30.011 Y-67.079 E22.25988
G1 X32.845 Y-62.354 E22.56294
G1 X34.316 Y-60.119 E22.71011
G1 X37.536 Y-55.656 E23.01282
G1 X40.99 Y-51.399 E23.31435
G1 X44.669 Y-47.352 E23.61518
G1 X48.57 Y-43.523 E23.91584
G1 X52.719 Y-39.886 E24.21932
G1 X54.813 Y-38.205 E24.36702
G1 X59.24 Y-34.945 E24.66942
G1 X63.821 Y-31.956 E24.97029
G1 X68.567 Y-29.228 E25.27139
G1 X73.454 Y-26.777 E25.57211
G1 X78.506 Y-24.59 E25.87491
G1 X81.057 Y-23.611 E26.0252
G1 X83.984 Y-22.589 E26.19573
G1 X84.211 Y-22.5 E26.20914
G1 X86.23 Y-21.618 E26.33033
G1 X86.818 Y-21.283 E26.36755
G1 X88.515 Y-20.064 E26.48248
G1 X89.017 Y-19.616 E26.51948
G1 X90.418 Y-18.075 E26.63404
G1 X90.813 Y-17.537 E26.67075
G1 X91.867 Y-15.736 E26.78553
G1 X92.143 Y-15.127 E26.82231
G1 X92.802 Y-13.143 E26.9373
G1 X92.949 Y-12.46 E26.97573
G1 X93.191 Y-10.113 E27.1055
G1 X93.208 Y-9.78 E27.12384
G1 X93.183 Y10.235 E28.22475
G1 X93.164 Y10.576 E28.24353
G1 X92.971 Y12.361 E28.34229
G1 X92.839 Y12.99 E28.37764
G1 X92.204 Y14.983 E28.49269
G1 X91.934 Y15.598 E28.52964
G1 X90.903 Y17.408 E28.64421
G1 X90.512 Y17.953 E28.68111
G1 X89.119 Y19.518 E28.79635
G1 X88.622 Y19.971 E28.83334
G1 X86.943 Y21.205 E28.94795
G1 X86.339 Y21.554 E28.98632
G1 X84.209 Y22.495 E29.1144
G1 X84.009 Y22.576 E29.12627
G1 X78.776 Y24.478 E29.43253
G1 X73.747 Y26.636 E29.73353
G1 X68.846 Y29.075 E30.03464
G1 X64.086 Y31.791 E30.33609
G1 X59.5 Y34.761 E30.63661
G1 X55.085 Y37.99 E30.93747
G1 X50.842 Y41.479 E31.23962
G1 X46.82 Y45.184 E31.54041
G1 F1500 E25.04041
G0 F3600 X37.29 Y39.679
G0 X36.152 Y39.023
G0 X44.457 Y0.00
G0 X19.3 Y-50.77
G0 X19.37 Y-50.84
;TYPE:WALL-INNER
G1 F1500 E31.54041
G1 F1800 X24.955 Y-50.84 E31.84761
G1 X26.866 Y-50.434 E31.95506
G1 X28.659 Y-49.636 E32.06301
G1 X30.242 Y-48.485 E32.17067
G1 X31.551 Y-47.031 E32.27828
G1 X47.554 Y-19.315 E34.03864
G1 X80.98 Y-19.315 E35.8772
G1 X82.891 Y-18.909 E35.98466
G1 X84.684 Y-18.111 E36.09261
G1 X86.267 Y-16.96 E36.20026
G1 X87.576 Y-15.506 E36.30787
G1 X88.557 Y-13.808 E36.41574
G1 X89.161 Y-11.949 E36.52325
G1 X89.37 Y-9.963 E36.63309
G1 X89.37 Y9.963 E37.7291
G1 X89.161 Y11.949 E37.83894
G1 X88.557 Y13.808 E37.94646
G1 X87.576 Y15.506 E38.05432
G1 X86.267 Y16.96 E38.16193
G1 X84.684 Y18.111 E38.26959
G1 X82.891 Y18.909 E38.37753
G1 X80.98 Y19.315 E38.48499
G1 X47.554 Y19.315 E40.32355
G1 X31.551 Y47.031 E42.08392
G1 X30.242 Y48.485 E42.19153
G1 X28.659 Y49.636 E42.29918
G1 X26.866 Y50.434 E42.40713
G1 X24.955 Y50.84 E42.51459
G1 X19.37 Y50.84 E42.82179
G1 X19.37 Y79.962 E44.42361
G1 X19.161 Y81.945 E44.53329
G1 X18.555 Y83.812 E44.64125
G1 X17.576 Y85.506 E44.74887
G1 X16.267 Y86.96 E44.85648
G1 X14.684 Y88.111 E44.96414
G1 X12.891 Y88.909 E45.07209
G1 X10.98 Y89.315 E45.17954
G1 X-10.98 Y89.315 E46.38743
G1 X-12.891 Y88.909 E46.49489
G1 X-14.684 Y88.111 E46.60284
G1 X-16.267 Y86.96 E46.71049
G1 X-17.576 Y85.506 E46.8181
G1 X-18.555 Y83.812 E46.92572
G1 X-19.161 Y81.945 E47.03369
G1 X-19.37 Y79.962 E47.14337
G1 X-19.37 Y50.84 E48.74519
G1 X-24.955 Y50.84 E49.05239
G1 X-26.866 Y50.434 E49.15985
G1 X-28.659 Y49.636 E49.2678
G1 X-30.242 Y48.485 E49.37545
G1 X-31.551 Y47.031 E49.48306
G1 X-47.554 Y19.315 E51.24342
G1 X-80.98 Y19.315 E53.08198
G1 X-82.891 Y18.909 E53.18944
G1 X-84.684 Y18.111 E53.29739
G1 X-86.267 Y16.96 E53.40505
G1 X-87.576 Y15.506 E53.51266
G1 X-88.557 Y13.808 E53.62052
G1 X-89.161 Y11.949 E53.72803
G1 X-89.37 Y9.963 E53.83787
G1 X-89.37 Y-9.963 E54.93388
G1 X-89.161 Y-11.949 E55.04372
G1 X-88.557 Y-13.808 E55.15124
G1 X-87.576 Y-15.506 E55.2591
G1 X-86.267 Y-16.96 E55.36671
G1 X-84.684 Y-18.111 E55.47437
G1 X-82.891 Y-18.909 E55.58232
G1 X-80.98 Y-19.315 E55.68977
G1 X-47.554 Y-19.315 E57.52834
G1 X-31.551 Y-47.031 E59.2887
G1 X-30.242 Y-48.485 E59.39631
G1 X-28.659 Y-49.636 E59.50396
G1 X-26.866 Y-50.434 E59.61191
G1 X-24.955 Y-50.84 E59.71937
G1 X-19.37 Y-50.84 E60.02657
G1 X-19.37 Y-79.962 E61.62839
G1 X-19.161 Y-81.945 E61.73807
G1 X-18.555 Y-83.812 E61.84604
G1 X-17.576 Y-85.506 E61.95365
G1 X-16.267 Y-86.96 E62.06126
G1 X-14.684 Y-88.111 E62.16892
G1 X-12.891 Y-88.909 E62.27687
G1 X-10.98 Y-89.315 E62.38433
G1 X10.98 Y-89.315 E63.59221
G1 X12.891 Y-88.909 E63.69967
G1 X14.684 Y-88.111 E63.80762
G1 X16.267 Y-86.96 E63.91528
G1 X17.576 Y-85.506 E64.02289
G1 X18.555 Y-83.812 E64.1305
G1 X19.161 Y-81.945 E64.23847
G1 X19.37 Y-79.962 E64.34815
G1 X19.37 Y-50.84 E65.94997
G0 F3600 X19.3 Y-50.77
G0 X-22.228 Y-38.501
G0 X-44.517 Y0.00
G0 X-44.417 Y0.00
G1 F1800 X-22.208 Y38.467 E68.39313
G1 X22.208 Y38.467 E70.83619
G1 X44.417 Y0.00 E73.27935
G1 X22.208 Y-38.467 E75.72251
G1 X-22.208 Y-38.467 E78.16556
G1 X-44.417 Y0.00 E80.60872
G0 F3600 X-44.517 Y0.00
G0 X-22.415 Y-38.308
G0 X-21.966 Y-38.047
;TYPE:WALL-OUTER
G1 F1800 X-43.932 Y0.00 E83.02519
G1 X-21.966 Y38.047 E85.44166
G1 X21.966 Y38.047 E87.8581
G1 X43.932 Y0.00 E90.27457
G1 X21.966 Y-38.047 E92.69104
G1 X-21.966 Y-38.047 E95.10747
G0 F3600 X-22.066 Y-37.874
G0 X-22.515 Y-38.135
G0 X-22.257 Y-38.464
G0 X19.27 Y-51.26
G0 X19.79 Y-51.26
G1 F1800 X25 Y-51.26 E95.39404
G1 X26.998 Y-50.836 E95.50639
G1 X28.87 Y-50.002 E95.61911
G1 X30.523 Y-48.8 E95.73153
G1 X31.894 Y-47.278 E95.8442
G1 X47.796 Y-19.735 E97.59354
G1 X81.025 Y-19.735 E99.42127
G1 X83.023 Y-19.311 E99.53361
G1 X84.895 Y-18.477 E99.64634
G1 X86.548 Y-17.275 E99.75876
G1 X87.919 Y-15.753 E99.87143
G1 X88.942 Y-13.982 E99.98392
G1 X89.575 Y-12.034 E100.09659
G1 X89.79 Y-9.988 E100.20975
G1 X89.79 Y9.988 E101.3085
G1 X89.575 Y12.034 E101.42166
G1 X88.942 Y13.982 E101.53432
G1 X87.919 Y15.753 E101.64682
G1 X86.548 Y17.275 E101.75949
G1 X84.895 Y18.477 E101.87191
G1 X83.023 Y19.311 E101.98463
G1 X81.025 Y19.735 E102.09698
G1 X47.796 Y19.735 E103.92471
G1 X31.894 Y47.278 E105.67405
G1 X30.523 Y48.8 E105.78672
G1 X28.87 Y50.002 E105.89914
G1 X26.998 Y50.836 E106.01186
G1 X25 Y51.26 E106.12421
G1 X19.79 Y51.26 E106.41078
G1 X19.79 Y79.987 E107.99088
G1 X19.574 Y82.034 E108.1041
G1 X18.942 Y83.982 E108.21674
G1 X17.919 Y85.753 E108.32924
G1 X16.548 Y87.275 E108.44191
G1 X14.895 Y88.477 E108.55433
G1 X13.023 Y89.311 E108.66705
G1 X11.025 Y89.735 E108.7794
G1 X-11.025 Y89.735 E109.99223
G1 X-13.023 Y89.311 E110.10458
G1 X-14.895 Y88.477 E110.2173
G1 X-16.548 Y87.275 E110.32972
G1 X-17.919 Y85.753 E110.44239
G1 X-18.942 Y83.982 E110.55489
G1 X-19.574 Y82.034 E110.66754
G1 X-19.79 Y79.987 E110.78075
G1 X-19.79 Y51.26 E112.36085
G1 X-25 Y51.26 E112.64742
G1 X-26.998 Y50.836 E112.75977
G1 X-28.87 Y50.002 E112.87249
G1 X-30.523 Y48.8 E112.98491
G1 X-31.894 Y47.278 E113.09758
G1 X-47.796 Y19.735 E114.84692
G1 X-81.025 Y19.735 E116.67465
G1 X-83.023 Y19.311 E116.787
G1 X-84.895 Y18.477 E116.89972
G1 X-86.548 Y17.275 E117.01214
G1 X-87.919 Y15.753 E117.12481
G1 X-88.942 Y13.982 E117.23731
G1 X-89.575 Y12.034 E117.34997
G1 X-89.79 Y9.988 E117.46313
G1 X-89.79 Y-9.988 E118.56189
G1 X-89.575 Y-12.034 E118.67504
G1 X-88.942 Y-13.982 E118.78771
G1 X-87.919 Y-15.753 E118.9002
G1 X-86.548 Y-17.275 E119.01287
G1 X-84.895 Y-18.477 E119.12529
G1 X-83.023 Y-19.311 E119.23802
G1 X-81.025 Y-19.735 E119.35036
G1 X-47.796 Y-19.735 E121.17809
G1 X-31.894 Y-47.278 E122.92743
G1 X-30.523 Y-48.8 E123.0401
G1 X-28.87 Y-50.002 E123.15252
G1 X-26.998 Y-50.836 E123.26524
G1 X-25 Y-51.26 E123.37759
G1 X-19.79 Y-51.26 E123.66416
G1 X-19.79 Y-79.987 E125.24426
G1 X-19.574 Y-82.034 E125.35748
G1 X-18.942 Y-83.982 E125.47012
G1 X-17.919 Y-85.753 E125.58262
G1 X-16.548 Y-87.275 E125.69529
G1 X-14.895 Y-88.477 E125.80771
G1 X-13.023 Y-89.311 E125.92043
G1 X-11.025 Y-89.735 E126.03278
G1 X11.025 Y-89.735 E127.24562
G1 X13.023 Y-89.311 E127.35796
G1 X14.895 Y-88.477 E127.47068
G1 X16.548 Y-87.275 E127.5831
G1 X17.919 Y-85.753 E127.69578
G1 X18.942 Y-83.982 E127.80827
G1 X19.574 Y-82.034 E127.92092
G1 X19.79 Y-79.987 E128.03413
G1 X19.79 Y-51.26 E129.61423
G0 F3600 X19.99 Y-51.26
G0 X19.99 Y-50.74
G0 X18.96 Y-50.43
;TYPE:SKIN
G1 F1800 X24.912 Y-50.43 E129.94162
G1 X26.738 Y-50.042 E130.0443
G1 X28.452 Y-49.279 E130.14749
G1 X29.964 Y-48.18 E130.25031
G1 X31.219 Y-46.786 E130.35348
G1 X47.318 Y-18.905 E132.12434
G1 X80.937 Y-18.905 E133.97352
G1 X82.763 Y-18.517 E134.0762
G1 X84.477 Y-17.754 E134.17939
G1 X85.989 Y-16.655 E134.28221
G1 X87.244 Y-15.26 E134.38542
G1 X88.18 Y-13.641 E134.48828
G1 X88.757 Y-11.863 E134.5911
G1 X88.96 Y-9.939 E134.69751
G1 X88.96 Y9.939 E135.79088
G1 X88.757 Y11.863 E135.8973
G1 X88.18 Y13.641 E136.00011
G1 X87.244 Y15.26 E136.10298
G1 X85.989 Y16.655 E136.20619
G1 X84.477 Y17.754 E136.309
G1 X82.763 Y18.517 E136.4122
G1 X80.937 Y18.905 E136.51488
G1 X47.318 Y18.905 E138.36406
G1 X31.219 Y46.786 E140.13492
G1 X29.964 Y48.18 E140.23809
G1 X28.452 Y49.279 E140.3409
G1 X26.738 Y50.042 E140.4441
G1 X24.912 Y50.43 E140.54678
G1 X18.96 Y50.43 E140.87416
G1 X18.96 Y79.937 E142.49716
G1 X18.757 Y81.859 E142.60347
G1 X18.178 Y83.645 E142.70674
G1 X17.244 Y85.26 E142.80936
G1 X15.989 Y86.655 E142.91257
G1 X14.477 Y87.754 E143.01538
G1 X12.763 Y88.517 E143.11858
G1 X10.937 Y88.905 E143.22126
G1 X-10.937 Y88.905 E144.42441
G1 X-12.763 Y88.517 E144.52709
G1 X-14.477 Y87.754 E144.63029
G1 X-15.989 Y86.655 E144.7331
G1 X-17.244 Y85.26 E144.83631
G1 X-18.178 Y83.645 E144.93893
G1 X-18.757 Y81.859 E145.0422
G1 X-18.96 Y79.937 E145.14851
G1 X-18.96 Y50.43 E146.77151
G1 X-24.912 Y50.43 E147.09889
G1 X-26.738 Y50.042 E147.20157
G1 X-28.452 Y49.279 E147.30477
G1 X-29.964 Y48.18 E147.40758
G1 X-31.219 Y46.786 E147.51075
G1 X-47.318 Y18.905 E149.28161
G1 X-80.937 Y18.905 E151.13079
G1 X-82.763 Y18.517 E151.23347
G1 X-84.477 Y17.754 E151.33667
G1 X-85.989 Y16.655 E151.43948
G1 X-87.244 Y15.26 E151.54269
G1 X-88.18 Y13.641 E151.64556
G1 X-88.757 Y11.863 E151.74837
G1 X-88.96 Y9.939 E151.85479
G1 X-88.96 Y-9.939 E152.94816
G1 X-88.757 Y-11.863 E153.05457
G1 X-88.18 Y-13.641 E153.15739
G1 X-87.244 Y-15.26 E153.26025
G1 X-85.989 Y-16.655 E153.36346
G1 X-84.477 Y-17.754 E153.46628
G1 X-82.763 Y-18.517 E153.56947
G1 X-80.937 Y-18.905 E153.67215
G1 X-47.318 Y-18.905 E155.52133
G1 X-31.219 Y-46.786 E157.29219
G1 X-29.964 Y-48.18 E157.39536
G1 X-28.452 Y-49.279 E157.49818
G1 X-26.738 Y-50.042 E157.60137
G1 X-24.912 Y-50.43 E157.70405
G1 X-18.96 Y-50.43 E158.03144
G1 X-18.96 Y-79.937 E159.65444
G1 X-18.757 Y-81.859 E159.76074
G1 X-18.178 Y-83.645 E159.86401
G1 X-17.244 Y-85.26 E159.96663
G1 X-15.989 Y-86.655 E160.06984
G1 X-14.477 Y-87.754 E160.17266
G1 X-12.763 Y-88.517 E160.27585
G1 X-10.937 Y-88.905 E160.37853
G1 X10.937 Y-88.905 E161.58169
G1 X12.763 Y-88.517 E161.68437
G1 X14.477 Y-87.754 E161.78756
G1 X15.989 Y-86.655 E161.89038
G1 X17.244 Y-85.26 E161.99359
G1 X18.178 Y-83.645 E162.09621
G1 X18.757 Y-81.859 E162.19948
G1 X18.96 Y-79.937 E162.30578
G1 X18.96 Y-50.43 E163.92878
G0 F3600 X22.444 Y-38.877
G1 F1800 X-22.444 Y-38.877 E166.3978
G1 X-44.89 Y0.00 E168.86701
G1 X-22.444 Y38.877 E171.33622
G1 X22.444 Y38.877 E173.80524
G1 X44.89 Y0.00 E176.27444
G1 X22.444 Y-38.877 E178.74365
G0 F3600 X47.534 Y-19.281
G0 X85.088 Y-17.074
G1 F1800 X87.19 Y-14.972 E178.90716
G1 X87.26 Y-14.902
G0 F3600 X88.004 Y-13.564
G1 F1800 X83.659 Y-17.908 E179.24511
G1 X83.589 Y-17.978
G0 F3600 X82.622 Y-18.352
G1 F1800 X88.289 Y-12.685 E179.68593
G1 X88.359 Y-12.615
G0 F3600 X88.57 Y-11.81
G1 F1800 X81.868 Y-18.512 E180.20726
G1 X81.798 Y-18.582
G0 F3600 X81.113 Y-18.673
G1 F1800 X88.64 Y-11.146 E180.79276
G1 X88.71 Y-11.076
G0 F3600 X88.711 Y-10.481
G1 F1800 X80.477 Y-18.714 E181.43323
G1 X80.407 Y-18.784
G0 F3600 X79.883 Y-18.714
G1 F1800 X88.769 Y-9.829 E182.12441
G1 X88.839 Y-9.759
G0 F3600 X88.769 Y-9.235
G1 F1800 X79.29 Y-18.714 E182.86175
G1 X79.22 Y-18.784
G0 F3600 X78.696 Y-18.714
G1 F1800 X88.769 Y-8.641 E183.6453
G1 X88.839 Y-8.571
G0 F3600 X88.769 Y-8.047
G1 F1800 X78.102 Y-18.714 E184.47506
G1 X78.032 Y-18.784
G0 F3600 X77.508 Y-18.714
G1 F1800 X88.769 Y-7.453 E185.35102
G1 X88.839 Y-7.383
G0 F3600 X88.769 Y-6.859
G1 F1800 X76.914 Y-18.714 E186.27319
G1 X76.844 Y-18.784
G0 F3600 X76.32 Y-18.714
G1 F1800 X88.769 Y-6.265 E187.24157
G1 X88.839 Y-6.195
G0 F3600 X88.769 Y-5.671
G1 F1800 X75.726 Y-18.714 E188.25615
G1 X75.656 Y-18.784
G0 F3600 X75.132 Y-18.714
