;FLAVOR:Marlin
;TIME:3611
;Filament used: 4.07347m
;Layer height: 0.2
;Generated with Cura_SteamEngine 3.3.0
M104 S195
M109 S195
M82 ;absolute extrusion mode
G28 ;Home
G1 Z15.0 F6000 ;Move the platform down 15mm
;Prime the extruder
G92 E0
G1 F200 E3
G92 E0
G92 E0
G1 F1500 E-6.5
;LAYER_COUNT:38
;LAYER:0
M107
G0 F3600 X-26.744 Y-43.12 Z0.3
;TYPE:SKIRT
G1 F1500 E0
G1 F1800 X-26.457 Y-43.537 E0.02784
G1 X-26.108 Y-43.904 E0.0557
G1 X-25.705 Y-44.212 E0.0836
G1 X-25.26 Y-44.452 E0.11141
G1 X-24.782 Y-44.619 E0.13926
G1 X-24.283 Y-44.709 E0.16715
G1 X-23.964 Y-44.725 E0.18472
G1 X23.969 Y-44.725 E2.82122
G1 X24.474 Y-44.685 E2.84909
G1 X24.966 Y-44.566 E2.87693
G1 X25.433 Y-44.371 E2.90476
G1 X25.864 Y-44.106 E2.93259
G1 X26.248 Y-43.775 E2.96048
G1 X26.575 Y-43.389 E2.98831
G1 X26.749 Y-43.12 E3.00593
G1 X50.718 Y-1.605 E5.64268
G1 X50.936 Y-1.148 E5.67053
G1 X51.079 Y-.662 E5.6984
G1 X51.144 Y-.16 E5.72624
G1 X51.129 Y0.346 E5.75408
G1 X51.035 Y0.844 E5.78196
G1 X50.864 Y1.32 E5.80978
G1 X50.718 Y1.605 E5.82739
G1 X26.75 Y43.12 E8.46412
G1 X26.463 Y43.537 E8.49196
G1 X26.114 Y43.904 E8.51982
G1 X25.712 Y44.211 E8.54764
G1 X25.266 Y44.452 E8.57553
G1 X24.788 Y44.619 E8.60338
G1 X24.29 Y44.709 E8.63121
G1 X23.97 Y44.725 E8.64884
G1 X-23.969 Y44.725 E11.28567
G1 X-24.474 Y44.685 E11.31353
G1 X-24.966 Y44.566 E11.34138
G1 X-25.433 Y44.371 E11.36921
G1 X-25.864 Y44.106 E11.39704
G1 X-26.248 Y43.775 E11.42493
G1 X-26.575 Y43.389 E11.45275
G1 X-26.749 Y43.12 E11.47037
G1 X-50.717 Y1.605 E14.1071
G1 X-50.935 Y1.148 E14.13495
G1 X-51.078 Y0.662 E14.16282
G1 X-51.143 Y0.16 E14.19066
G1 X-51.128 Y-.346 E14.2185
G1 X-51.034 Y-.844 E14.24638
G1 X-50.863 Y-1.32 E14.2742
G1 X-50.717 Y-1.605 E14.29181
G1 X-26.744 Y-43.12 E16.92868
G1 F1500 E10.42868
G0 F3600 X-24.737 Y-41.534
G0 X-23.601 Y-40.878
G0 X-35.699 Y0.00
G0 X-35.599 Y0.00
;TYPE:WALL-INNER
G1 F1500 E16.92868
G1 F1800 X-17.799 Y30.83 E18.88679
G1 X17.799 Y30.83 E20.84482
G1 X35.599 Y0.00 E22.80294
G1 X17.799 Y-30.83 E24.76106
G1 X-17.799 Y-30.83 E26.71909
G1 X-35.599 Y0.00 E28.6772
G0 F3600 X-35.699 Y0.00
G0 X-17.819 Y-30.864
G0 X17.819 Y-30.864
G0 X47.121 Y0.00
G0 X47.221 Y0.00
G1 F1800 X23.611 Y40.895 E31.27455
G1 X-23.611 Y40.895 E33.87195
G1 X-47.221 Y0.00 E36.46929
G1 X-23.611 Y-40.895 E39.06664
G1 X23.611 Y-40.895 E41.66404
G1 X47.221 Y0.00 E44.26139
G0 F3600 X47.706 Y0.00
;TYPE:WALL-OUTER
G1 F1800 X23.854 Y41.315 E46.8854
G1 X-23.854 Y41.315 E49.50952
G1 X-47.706 Y0.00 E52.13353
G1 X-23.854 Y-41.315 E54.75754
G1 X23.854 Y-41.315 E57.38167
G1 X47.706 Y0.00 E60.00568
G0 F3600 X47.607 Y0.173
G0 X47.121 Y0.00
G0 X17.819 Y-30.864
G0 X-17.819 Y-30.864
G0 X-18.006 Y-30.671
G0 X-17.557 Y-30.41
G1 F1800 X-35.114 Y0.00 E61.93711
G1 X-17.557 Y30.41 E63.86853
G1 X17.557 Y30.41 E65.79994
G1 X35.114 Y0.00 E67.73137
G1 X17.557 Y-30.41 E69.6628
G1 X-17.557 Y-30.41 E71.59421
G0 F3600 X-17.657 Y-30.237
G0 X-18.106 Y-30.498
G0 X-18.035 Y-31.24
;TYPE:SKIN
G1 F1800 X-36.072 Y0.00 E73.57837
G1 X-18.035 Y31.24 E75.56254
G1 X18.035 Y31.24 E77.54653
G1 X36.072 Y0.00 E79.53069
G1 X18.035 Y-31.24 E81.51486
G1 X-18.035 Y-31.24 E83.49885
G0 F3600 X-23.375 Y-40.485
G1 F1800 X23.375 Y-40.485 E86.07028
G1 X46.747 Y0.00 E88.64156
G1 X23.375 Y40.485 E91.21283
G1 X-23.375 Y40.485 E93.78426
G1 X-46.747 Y0.00 E96.35553
G1 X-23.375 Y-40.485 E98.92681
G0 F3600 X22.666 Y-40.294
G1 F1800 X24.084 Y-38.876 E99.03711
G1 X24.154 Y-38.806
G0 F3600 X24.895 Y-37.471
G1 F1800 X22.072 Y-40.294 E99.2567
G1 X22.002 Y-40.364
G0 F3600 X21.478 Y-40.294
G1 F1800 X25.706 Y-36.065 E99.58563
G1 X25.776 Y-35.995
G0 F3600 X26.518 Y-34.66
G1 F1800 X20.884 Y-40.294 E100.02388
G1 X20.814 Y-40.364
G0 F3600 X20.29 Y-40.294
G1 F1800 X27.329 Y-33.255 E100.57142
G1 X27.399 Y-33.185
G0 F3600 X28.14 Y-31.85
G1 F1800 X19.696 Y-40.294 E101.22826
G1 X19.626 Y-40.364
G0 F3600 X19.102 Y-40.294
G1 F1800 X28.951 Y-30.445 E101.99439
G1 X29.021 Y-30.375
G0 F3600 X29.762 Y-29.04
G1 F1800 X18.508 Y-40.294 E102.86981
G1 X18.438 Y-40.364
G0 F3600 X17.914 Y-40.294
G1 F1800 X30.573 Y-27.635 E103.85452
G1 X30.643 Y-27.565
G0 F3600 X31.384 Y-26.23
G1 F1800 X17.32 Y-40.294 E104.94852
G1 X17.25 Y-40.364
G0 F3600 X16.726 Y-40.294
G1 F1800 X32.195 Y-24.825 E106.15181
G1 X32.265 Y-24.755
G0 F3600 X33.007 Y-23.42
G1 F1800 X16.132 Y-40.294 E107.46443
G1 X16.062 Y-40.364
G0 F3600 X15.538 Y-40.294
G1 F1800 X33.818 Y-22.015 E108.88635
G1 X33.888 Y-21.945
G0 F3600 X34.629 Y-20.61
G1 F1800 X14.944 Y-40.294 E110.41755
G1 X14.874 Y-40.364
G0 F3600 X14.35 Y-40.294
G1 F1800 X35.44 Y-19.205 E112.05805
G1 X35.51 Y-19.135
G0 F3600 X36.251 Y-17.799
G1 F1800 X13.756 Y-40.294 E113.80787
G1 X13.686 Y-40.364
G0 F3600 X13.162 Y-40.294
G1 F1800 X37.062 Y-16.394 E115.66699
G1 X37.132 Y-16.324
G0 F3600 X37.873 Y-14.989
G1 F1800 X12.568 Y-40.294 E117.6354
G1 X12.498 Y-40.364
G0 F3600 X11.974 Y-40.294
G1 F1800 X38.684 Y-13.584 E119.7131
G1 X38.754 Y-13.514
G0 F3600 X39.495 Y-12.179
G1 F1800 X11.38 Y-40.294 E121.90009
G1 X11.31 Y-40.364
G0 F3600 X10.786 Y-40.294
G1 F1800 X40.306 Y-10.774 E124.19637
G1 X40.376 Y-10.704
G0 F3600 X41.117 Y-9.369
G1 F1800 X10.192 Y-40.294 E126.60194
G1 X10.122 Y-40.364
G0 F3600 X9.598 Y-40.294
G1 F1800 X41.928 Y-7.964 E129.11681
G1 X41.998 Y-7.894
G0 F3600 X42.739 Y-6.559
G1 F1800 X18.519 Y-30.78 E131.00086
G1 X18.449 Y-30.85
G0 F3600 X17.87 Y-31.428
G1 F1800 X9.005 Y-40.294 E131.69048
G1 X8.935 Y-40.364
G0 F3600 X8.411 Y-40.294
G1 F1800 X17.276 Y-31.428 E132.3801
G1 X17.346 Y-31.358
G0 F3600 X16.682 Y-31.428
G1 F1800 X7.817 Y-40.294 E133.06973
G1 X7.747 Y-40.364
G0 F3600 X7.223 Y-40.294
G1 F1800 X16.088 Y-31.428 E133.75935
G1 X16.158 Y-31.358
G0 F3600 X15.494 Y-31.428
G1 F1800 X6.629 Y-40.294 E134.44897
G1 X6.559 Y-40.364
G0 F3600 X6.035 Y-40.294
G1 F1800 X14.9 Y-31.428 E135.1386
G1 X14.97 Y-31.358
G0 F3600 X14.306 Y-31.428
G1 F1800 X5.441 Y-40.294 E135.82822
G1 X5.371 Y-40.364
G0 F3600 X4.847 Y-40.294
G1 F1800 X13.712 Y-31.428 E136.51784
G1 X13.782 Y-31.358
G0 F3600 X13.118 Y-31.428
G1 F1800 X4.253 Y-40.294 E137.20747
G1 X4.183 Y-40.364
G0 F3600 X3.659 Y-40.294
G1 F1800 X12.524 Y-31.428 E137.89709
G1 X12.594 Y-31.358
G0 F3600 X11.931 Y-31.428
G1 F1800 X3.065 Y-40.294 E138.58675
G1 X2.995 Y-40.364
G0 F3600 X2.471 Y-40.294
G1 F1800 X11.337 Y-31.428 E139.27642
G1 X11.407 Y-31.358
G0 F3600 X10.743 Y-31.428
G1 F1800 X1.877 Y-40.294 E139.96608
G1 X1.807 Y-40.364
G0 F3600 X1.283 Y-40.294
G1 F1800 X10.149 Y-31.428 E140.65574
G1 X10.219 Y-31.358
G0 F3600 X9.555 Y-31.428
G1 F1800 X0.689 Y-40.294 E141.3454
G1 X0.619 Y-40.364
G0 F3600 X0.095 Y-40.294
G1 F1800 X8.961 Y-31.428 E142.03507
G1 X9.031 Y-31.358
G0 F3600 X8.367 Y-31.428
G1 F1800 X-.498 Y-40.294 E142.72469
G1 X-.568 Y-40.364
G0 F3600 X-1.092 Y-40.294
G1 F1800 X7.773 Y-31.428 E143.41431
G1 X7.843 Y-31.358
G0 F3600 X7.179 Y-31.428
G1 F1800 X-1.686 Y-40.294 E144.10394
G1 X-1.756 Y-40.364
G0 F3600 X-2.28 Y-40.294
G1 F1800 X6.585 Y-31.428 E144.79356
G1 X6.655 Y-31.358
G0 F3600 X5.991 Y-31.428
G1 F1800 X-2.874 Y-40.294 E145.48318
G1 X-2.944 Y-40.364
G0 F3600 X-3.468 Y-40.294
G1 F1800 X5.397 Y-31.428 E146.17281
G1 X5.467 Y-31.358
G0 F3600 X4.803 Y-31.428
G1 F1800 X-4.062 Y-40.294 E146.86243
G1 X-4.132 Y-40.364
G0 F3600 X-4.656 Y-40.294
G1 F1800 X4.209 Y-31.428 E147.55205
G1 X4.279 Y-31.358
G0 F3600 X3.615 Y-31.428
G1 F1800 X-5.25 Y-40.294 E148.24168
G1 X-5.32 Y-40.364
G0 F3600 X-5.844 Y-40.294
G1 F1800 X3.021 Y-31.428 E148.9313
G1 X3.091 Y-31.358
G0 F3600 X2.427 Y-31.428
G1 F1800 X-6.438 Y-40.294 E149.62093
G1 X-6.508 Y-40.364
G0 F3600 X-7.032 Y-40.294
G1 F1800 X1.833 Y-31.428 E150.31055
G1 X1.903 Y-31.358
G0 F3600 X1.239 Y-31.428
G1 F1800 X-7.626 Y-40.294 E151.00017
G1 X-7.696 Y-40.364
G0 F3600 X-8.22 Y-40.294
G1 F1800 X0.645 Y-31.428 E151.6898
G1 X0.715 Y-31.358
G0 F3600 X0.051 Y-31.428
G1 F1800 X-8.814 Y-40.294 E152.37942
G1 X-8.884 Y-40.364
G0 F3600 X-9.408 Y-40.294
G1 F1800 X-.542 Y-31.428 E153.06908
G1 X-.472 Y-31.358
G0 F3600 X-1.136 Y-31.428
G1 F1800 X-10.002 Y-40.294 E153.75874
G1 X-10.072 Y-40.364
G0 F3600 X-10.595 Y-40.294
G1 F1800 X-1.73 Y-31.428 E154.44837
G1 X-1.66 Y-31.358
G0 F3600 X-2.324 Y-31.428
G1 F1800 X-11.189 Y-40.294 E155.13799
G1 X-11.259 Y-40.364
G0 F3600 X-11.783 Y-40.294
G1 F1800 X-2.918 Y-31.428 E155.82762
G1 X-2.848 Y-31.358
G0 F3600 X-3.512 Y-31.428
G1 F1800 X-12.377 Y-40.294 E156.51724
G1 X-12.447 Y-40.364
G0 F3600 X-12.971 Y-40.294
G1 F1800 X-4.106 Y-31.428 E157.20686
G1 X-4.036 Y-31.358
G0 F3600 X-4.7 Y-31.428
G1 F1800 X-13.565 Y-40.294 E157.89649
G1 X-13.635 Y-40.364
G0 F3600 X-14.159 Y-40.294
G1 F1800 X-5.294 Y-31.428 E158.58611
G1 X-5.224 Y-31.358
G0 F3600 X-5.888 Y-31.428
G1 F1800 X-14.753 Y-40.294 E159.27573
G1 X-14.823 Y-40.364
G0 F3600 X-15.347 Y-40.294
G1 F1800 X-6.482 Y-31.428 E159.96536
G1 X-6.412 Y-31.358
G0 F3600 X-7.076 Y-31.428
G1 F1800 X-15.941 Y-40.294 E160.65498
G1 X-16.011 Y-40.364
G0 F3600 X-16.535 Y-40.294
G1 F1800 X-7.669 Y-31.428 E161.34464
G1 X-7.599 Y-31.358
G0 F3600 X-8.263 Y-31.428
G1 F1800 X-17.129 Y-40.294 E162.03431
G1 X-17.199 Y-40.364
G0 F3600 X-17.723 Y-40.294
G1 F1800 X-8.857 Y-31.428 E162.72397
G1 X-8.787 Y-31.358
G0 F3600 X-9.451 Y-31.428
G1 F1800 X-18.317 Y-40.294 E163.41363
G1 X-18.387 Y-40.364
G0 F3600 X-18.911 Y-40.294
G1 F1800 X-10.045 Y-31.428 E164.10329
G1 X-9.975 Y-31.358
G0 F3600 X-10.639 Y-31.428
G1 F1800 X-19.505 Y-40.294 E164.79296
G1 X-19.575 Y-40.364
G0 F3600 X-20.099 Y-40.294
G1 F1800 X-11.233 Y-31.428 E165.48262
G1 X-11.163 Y-31.358
G0 F3600 X-11.827 Y-31.428
G1 F1800 X-20.693 Y-40.294 E166.17228
G1 X-20.763 Y-40.364
G0 F3600 X-21.287 Y-40.294
G1 F1800 X-12.421 Y-31.428 E166.86194
G1 X-12.351 Y-31.358
G0 F3600 X-13.015 Y-31.428
G1 F1800 X-21.881 Y-40.294 E167.55161
G1 X-21.951 Y-40.364
G0 F3600 X-22.475 Y-40.294
G1 F1800 X-13.609 Y-31.428 E168.24127
G1 X-13.539 Y-31.358
G0 F3600 X-14.203 Y-31.428
G1 F1800 X-23.069 Y-40.294 E168.93093
G1 X-23.139 Y-40.364
G0 F3600 X-23.411 Y-40.042
G1 F1800 X-14.797 Y-31.428 E169.60099
G1 X-14.727 Y-31.358
G0 F3600 X-15.391 Y-31.428
G1 F1800 X-23.629 Y-39.666 E170.2418
G1 X-23.699 Y-39.736
G0 F3600 X-23.846 Y-39.289
G1 F1800 X-15.985 Y-31.428 E170.85329
G1 X-15.915 Y-31.358
G0 F3600 X-16.579 Y-31.428
G1 F1800 X-24.063 Y-38.912 E171.43545
G1 X-24.133 Y-38.982
G0 F3600 X-24.281 Y-38.536
G1 F1800 X-17.173 Y-31.428 E171.98836
G1 X-17.103 Y-31.358
G0 F3600 X-17.767 Y-31.428
G1 F1800 X-24.498 Y-38.159 E172.51195
G1 X-24.568 Y-38.229
G0 F3600 X-24.716 Y-37.783
G1 F1800 X-18.224 Y-31.291 E173.01694
G1 X-18.154 Y-31.221
G0 F3600 X-18.441 Y-30.914
G1 F1800 X-24.933 Y-37.406 E173.52194
G1 X-25.003 Y-37.476
G0 F3600 X-25.151 Y-37.03
G1 F1800 X-18.658 Y-30.537 E174.02701
G1 X-18.588 Y-30.467
G0 F3600 X-18.876 Y-30.161
G1 F1800 X-25.368 Y-36.653 E174.53201
G1 X-25.438 Y-36.723
G0 F3600 X-25.585 Y-36.276
G1 F1800 X-19.093 Y-29.784 E175.037
G1 X-19.023 Y-29.714
G0 F3600 X-19.311 Y-29.408
G1 F1800 X-25.803 Y-35.9 E175.542
G1 X-25.873 Y-35.97
G0 F3600 X-26.02 Y-35.523
G1 F1800 X-19.528 Y-29.031 E176.04699
G1 X-19.458 Y-28.961
G0 F3600 X-19.745 Y-28.655
G1 F1800 X-26.237 Y-35.147 E176.55199
G1 X-26.307 Y-35.217
G0 F3600 X-26.454 Y-34.77
G1 F1800 X-19.963 Y-28.278 E177.05694
G1 X-19.893 Y-28.208
G0 F3600 X-20.18 Y-27.902
G1 F1800 X-26.672 Y-34.394 E177.56194
G1 X-26.742 Y-34.464
G0 F3600 X-26.889 Y-34.017
G1 F1800 X-20.397 Y-27.525 E178.06694
G1 X-20.327 Y-27.455
G0 F3600 X-20.615 Y-27.149
G1 F1800 X-27.106 Y-33.64 E178.57185
G1 X-27.176 Y-33.71
G0 F3600 X-27.324 Y-33.264
G1 F1800 X-20.832 Y-26.772 E179.07685
G1 X-20.762 Y-26.702
G0 F3600 X-21.049 Y-26.395
G1 F1800 X-27.541 Y-32.887 E179.58184
G1 X-27.611 Y-32.957
G0 F3600 X-27.759 Y-32.511
G1 F1800 X-21.267 Y-26.019 E180.08684
G1 X-21.197 Y-25.949
G0 F3600 X-21.484 Y-25.642
G1 F1800 X-27.976 Y-32.134 E180.59183
G1 X-28.046 Y-32.204
G0 F3600 X-28.194 Y-31.758
G1 F1800 X-21.702 Y-25.266 E181.09683
G1 X-21.632 Y-25.196
G0 F3600 X-21.919 Y-24.889
G1 F1800 X-28.411 Y-31.381 E181.60182
G1 X-28.481 Y-31.451
G0 F3600 X-28.629 Y-31.005
G1 F1800 X-22.137 Y-24.513 E182.10682
G1 X-22.067 Y-24.443
G0 F3600 X-22.354 Y-24.136
G1 F1800 X-28.846 Y-30.628 E182.61182
G1 X-28.916 Y-30.698
G0 F3600 X-29.063 Y-30.251
G1 F1800 X-22.572 Y-23.76 E183.11673
G1 X-22.502 Y-23.69
G0 F3600 X-22.789 Y-23.383
G1 F1800 X-29.281 Y-29.875 E183.62173
G1 X-29.351 Y-29.945
G0 F3600 X-29.498 Y-29.498
G1 F1800 X-23.007 Y-23.007 E184.12665
G1 X-22.937 Y-22.937
G0 F3600 X-23.224 Y-22.63
G1 F1800 X-29.716 Y-29.122 E184.63164
G1 X-29.786 Y-29.192
G0 F3600 X-29.933 Y-28.745
G1 F1800 X-23.441 Y-22.253 E185.13664
G1 X-23.371 Y-22.183
G0 F3600 X-23.659 Y-21.877
G1 F1800 X-30.151 Y-28.369 E185.64163
G1 X-30.221 Y-28.439
G0 F3600 X-30.368 Y-27.992
G1 F1800 X-23.876 Y-21.5 E186.14663
G1 X-23.806 Y-21.43
G0 F3600 X-24.093 Y-21.124
G1 F1800 X-30.585 Y-27.615 E186.65158
G1 X-30.655 Y-27.685
G0 F3600 X-30.802 Y-27.239
G1 F1800 X-24.311 Y-20.747 E187.15654
G1 X-24.241 Y-20.677
G0 F3600 X-24.528 Y-20.371
G1 F1800 X-31.02 Y-26.862 E187.6615
G1 X-31.09 Y-26.932
G0 F3600 X-31.237 Y-26.486
G1 F1800 X-24.745 Y-19.994 E188.16649
G1 X-24.675 Y-19.924
G0 F3600 X-24.963 Y-19.617
G1 F1800 X-31.454 Y-26.109 E188.67145
G1 X-31.524 Y-26.179
G0 F3600 X-31.672 Y-25.733
G1 F1800 X-25.18 Y-19.241 E189.17644
G1 X-25.11 Y-19.171
G0 F3600 X-25.398 Y-18.864
G1 F1800 X-31.889 Y-25.356 E189.6814
G1 X-31.959 Y-25.426
G0 F3600 X-32.106 Y-24.979
G1 F1800 X-25.615 Y-18.488 E190.18632
G1 X-25.545 Y-18.418
G0 F3600 X-25.833 Y-18.111
G1 F1800 X-32.324 Y-24.603 E190.69127
G1 X-32.394 Y-24.673
G0 F3600 X-32.541 Y-24.226
G1 F1800 X-26.05 Y-17.734 E191.19623
G1 X-25.98 Y-17.664
G0 F3600 X-26.267 Y-17.358
G1 F1800 X-32.759 Y-23.85 E191.70123
G1 X-32.829 Y-23.92
G0 F3600 X-32.976 Y-23.473
G1 F1800 X-26.485 Y-16.981 E192.20618
G1 X-26.415 Y-16.911
G0 F3600 X-26.702 Y-16.604
G1 F1800 X-33.194 Y-23.096 E192.71118
G1 X-33.264 Y-23.166
G0 F3600 X-33.411 Y-22.72
G1 F1800 X-26.92 Y-16.228 E193.21613
G1 X-26.85 Y-16.158
G0 F3600 X-27.137 Y-15.851
G1 F1800 X-33.628 Y-22.343 E193.72109
G1 X-33.698 Y-22.413
G0 F3600 X-33.846 Y-21.966
G1 F1800 X-27.355 Y-15.475 E194.22601
G1 X-27.285 Y-15.405
G0 F3600 X-27.572 Y-15.098
G1 F1800 X-34.063 Y-21.59 E194.73096
G1 X-34.133 Y-21.66
G0 F3600 X-34.281 Y-21.213
G1 F1800 X-27.79 Y-14.722 E195.23588
G1 X-27.72 Y-14.652
G0 F3600 X-28.007 Y-14.345
G1 F1800 X-34.498 Y-20.837 E195.74084
G1 X-34.568 Y-20.907
G0 F3600 X-34.716 Y-20.46
G1 F1800 X-28.224 Y-13.969 E196.2458
G1 X-28.154 Y-13.899
G0 F3600 X-28.441 Y-13.592
G1 F1800 X-34.933 Y-20.083 E196.75075
G1 X-35.003 Y-20.153
G0 F3600 X-35.15 Y-19.707
G1 F1800 X-28.659 Y-13.215 E197.25571
G1 X-28.589 Y-13.145
G0 F3600 X-28.876 Y-12.839
G1 F1800 X-35.368 Y-19.33 E197.76066
G1 X-35.438 Y-19.4
G0 F3600 X-35.585 Y-18.953
G1 F1800 X-29.093 Y-12.462 E198.26562
G1 X-29.023 Y-12.392
G0 F3600 X-29.311 Y-12.086
G1 F1800 X-35.802 Y-18.577 E198.77054
G1 X-35.872 Y-18.647
G0 F3600 X-36.02 Y-18.2
G1 F1800 X-29.528 Y-11.709 E199.2755
G1 X-29.458 Y-11.639
G0 F3600 X-29.746 Y-11.333
G1 F1800 X-36.237 Y-17.824 E199.78041
G1 X-36.307 Y-17.894
G0 F3600 X-36.454 Y-17.447
G1 F1800 X-29.963 Y-10.956 E200.28533
G1 X-29.893 Y-10.886
G0 F3600 X-30.181 Y-10.58
G1 F1800 X-36.671 Y-17.07 E200.79017
G1 X-36.741 Y-17.14
G0 F3600 X-36.889 Y-16.694
G1 F1800 X-30.398 Y-10.203 E201.29509
G1 X-30.328 Y-10.133
G0 F3600 X-30.616 Y-9.827
G1 F1800 X-37.106 Y-16.317 E201.79993
G1 X-37.176 Y-16.387
G0 F3600 X-37.324 Y-15.941
G1 F1800 X-30.833 Y-9.45 E202.30484
G1 X-30.763 Y-9.38
G0 F3600 X-31.051 Y-9.074
G1 F1800 X-37.541 Y-15.564 E202.80968
G1 X-37.611 Y-15.634
G0 F3600 X-37.759 Y-15.188
G1 F1800 X-31.268 Y-8.697 E203.3146
G1 X-31.198 Y-8.627
G0 F3600 X-31.485 Y-8.32
G1 F1800 X-37.976 Y-14.811 E203.81952
G1 X-38.046 Y-14.881
G0 F3600 X-38.193 Y-14.434
G1 F1800 X-31.703 Y-7.944 E204.32436
G1 X-31.633 Y-7.874
G0 F3600 X-31.92 Y-7.567
G1 F1800 X-38.411 Y-14.058 E204.82928
G1 X-38.481 Y-14.128
G0 F3600 X-38.628 Y-13.681
G1 F1800 X-32.138 Y-7.191 E205.33412
G1 X-32.068 Y-7.121
G0 F3600 X-32.355 Y-6.814
G1 F1800 X-38.846 Y-13.305 E205.83903
G1 X-38.916 Y-13.375
G0 F3600 X-39.063 Y-12.928
