;FLAVOR:Marlin
;TIME:1442
;Filament used: 1.39047m
;Layer height: 0.2
;Generated with Cura_SteamEngine 3.3.0
M104 S195
M109 S195
M82 ;absolute extrusion mode
G28 ;Home
G1 Z15.0 F6000 ;Move the platform down 15mm
;Prime the extruder
G92 E0
G1 F200 E3
G92 E0
G92 E0
G1 F1500 E-6.5
;LAYER_COUNT:13
;LAYER:0
M107
G0 F3600 X3.507 Y36.428 Z0.3
;TYPE:SKIRT
G1 F1500 E0
G1 F1800 X-3.384 Y36.44 E0.37903
G1 X-4.139 Y36.362 E0.42078
G1 X-10.894 Y34.938 E0.8005
G1 X-11.616 Y34.705 E0.84223
G1 X-17.916 Y31.913 E1.22126
G1 X-18.574 Y31.534 E1.26303
G1 X-24.156 Y27.492 E1.6421
G1 X-24.72 Y26.986 E1.68378
G1 X-29.343 Y21.871 E2.06301
G1 X-29.791 Y21.257 E2.10481
G1 X-33.252 Y15.286 E2.48443
G1 X-33.561 Y14.594 E2.52611
G1 X-35.703 Y8.04 E2.90537
G1 X-35.862 Y7.297 E2.94716
G1 X-36.594 Y0.439 E3.32652
G1 X-36.596 Y-.319 E3.36822
G1 X-35.887 Y-7.178 E3.7475
G1 X-35.73 Y-7.921 E3.78927
G1 X-33.612 Y-14.478 E4.16828
G1 X-33.305 Y-15.172 E4.21002
G1 X-29.864 Y-21.155 E4.58965
G1 X-29.419 Y-21.769 E4.63136
G1 X-24.815 Y-26.9 E5.01055
G1 X-24.251 Y-27.409 E5.05234
G1 X-18.678 Y-31.472 E5.43169
G1 X-18.022 Y-31.853 E5.47342
G1 X-11.728 Y-34.668 E5.85266
G1 X-11.006 Y-34.904 E5.89444
G1 X-4.261 Y-36.348 E6.27385
G1 X-3.507 Y-36.428 E6.31555
G1 X3.384 Y-36.44 E6.69459
G1 X4.139 Y-36.362 E6.73634
G1 X10.894 Y-34.938 E7.11605
G1 X11.616 Y-34.705 E7.15778
G1 X17.916 Y-31.913 E7.53681
G1 X18.574 Y-31.534 E7.57858
G1 X24.156 Y-27.492 E7.95765
G1 X24.72 Y-26.986 E7.99933
G1 X29.343 Y-21.871 E8.37856
G1 X29.791 Y-21.257 E8.42037
G1 X33.252 Y-15.286 E8.79998
G1 X33.561 Y-14.594 E8.84166
G1 X35.703 Y-8.04 E9.22093
G1 X35.862 Y-7.297 E9.26272
G1 X36.594 Y-.439 E9.64208
G1 X36.596 Y0.319 E9.68377
G1 X35.887 Y7.177 E10.063
G1 X35.73 Y7.92 E10.10477
G1 X33.612 Y14.478 E10.48383
G1 X33.305 Y15.172 E10.52557
G1 X29.864 Y21.155 E10.90521
G1 X29.419 Y21.769 E10.94692
G1 X24.815 Y26.9 E11.3261
G1 X24.252 Y27.409 E11.36785
G1 X18.68 Y31.472 E11.74716
G1 X18.023 Y31.853 E11.78893
G1 X11.728 Y34.668 E12.16822
G1 X11.006 Y34.904 E12.21
G1 X4.261 Y36.348 E12.58941
G1 X3.507 Y36.428 E12.63112
G0 F3600 X3.507 Y36.008
G1 F1800 X-3.384 Y36.02 E13.01015
G1 X-4.052 Y35.951 E13.04709
G1 X-10.807 Y34.527 E13.42681
G1 X-11.446 Y34.321 E13.46373
G1 X-17.746 Y31.529 E13.84276
G1 X-18.328 Y31.194 E13.8797
G1 X-23.91 Y27.152 E14.25878
G1 X-24.408 Y26.704 E14.29562
G1 X-29.031 Y21.589 E14.67485
G1 X-29.427 Y21.047 E14.71177
G1 X-32.888 Y15.076 E15.09138
G1 X-33.162 Y14.463 E15.12832
G1 X-35.304 Y7.909 E15.50758
G1 X-35.445 Y7.253 E15.54448
G1 X-36.177 Y0.395 E15.92384
G1 X-36.178 Y-.276 E15.96075
G1 X-35.469 Y-7.135 E16.34003
G1 X-35.331 Y-7.792 E16.37696
G1 X-33.213 Y-14.349 E16.75597
G1 X-32.941 Y-14.962 E16.79286
G1 X-29.5 Y-20.945 E17.17249
G1 X-29.106 Y-21.489 E17.20944
G1 X-24.502 Y-26.62 E17.58862
G1 X-24.004 Y-27.07 E17.62554
G1 X-18.431 Y-31.133 E18.00489
G1 X-17.851 Y-31.469 E18.04176
G1 X-11.557 Y-34.284 E18.421
G1 X-10.918 Y-34.493 E18.45798
G1 X-4.173 Y-35.937 E18.83739
G1 X-3.507 Y-36.008 E18.87423
G1 X3.384 Y-36.02 E19.25326
G1 X4.052 Y-35.951 E19.2902
G1 X10.807 Y-34.527 E19.66992
G1 X11.446 Y-34.321 E19.70685
G1 X17.746 Y-31.529 E20.08588
G1 X18.328 Y-31.194 E20.12282
G1 X23.91 Y-27.152 E20.50189
G1 X24.408 Y-26.704 E20.53873
G1 X29.031 Y-21.589 E20.91796
G1 X29.427 Y-21.047 E20.95489
G1 X32.888 Y-15.076 E21.3345
G1 X33.162 Y-14.463 E21.37143
G1 X35.304 Y-7.909 E21.75069
G1 X35.445 Y-7.253 E21.7876
G1 X36.177 Y-.395 E22.16696
G1 X36.178 Y0.276 E22.20387
G1 X35.469 Y7.134 E22.58309
G1 X35.331 Y7.791 E22.62002
G1 X33.213 Y14.349 E22.99908
G1 X32.941 Y14.962 E23.03597
G1 X29.5 Y20.945 E23.4156
G1 X29.106 Y21.489 E23.45255
G1 X24.502 Y26.62 E23.83173
G1 X24.004 Y27.07 E23.86865
G1 X18.432 Y31.133 E24.24796
G1 X17.851 Y31.469 E24.28488
G1 X11.556 Y34.284 E24.66417
G1 X10.918 Y34.493 E24.7011
G1 X4.173 Y35.937 E25.0805
G1 X3.507 Y36.008 E25.11734
G1 F1500 E18.61734
G0 F3600 X3.382 Y33.484
G0 X3.382 Y32.17
G0 X0.00 Y32.031
G0 X-2.087 Y31.64
G0 X-3.935 Y30.566
G0 X-3.868 Y30.493
;TYPE:WALL-INNER
G1 F1500 E25.11734
G1 F1800 X-2.073 Y31.603 E25.23343
G1 X-1.176 Y31.771 E25.28363
G1 X0.00 Y31.991 E25.34943
G1 X1.176 Y31.771 E25.41524
G1 X2.073 Y31.603 E25.46544
G1 X3.868 Y30.493 E25.58152
G1 X5.138 Y28.808 E25.69758
G1 X5.716 Y26.78 E25.81357
G1 X5.521 Y24.679 E25.92963
G1 X4.581 Y22.791 E26.04564
G1 X3.022 Y21.369 E26.1617
G1 X1.054 Y20.607 E26.27778
G1 X-1.054 Y20.607 E26.39373
G1 X-3.022 Y21.369 E26.50981
G1 X-4.581 Y22.791 E26.62587
G1 X-5.521 Y24.679 E26.74188
G1 X-5.716 Y26.78 E26.85794
G1 X-5.138 Y28.808 E26.97393
G1 X-3.868 Y30.493 E27.08999
G0 F3600 X-3.935 Y30.566
G0 X-12.776 Y19.368
G0 X-12.875 Y19.355
G1 F1800 X-12.973 Y17.247 E27.20606
G1 X-13.825 Y15.317 E27.3221
G1 X-15.317 Y13.825 E27.43816
G1 X-17.247 Y12.973 E27.5542
G1 X-19.355 Y12.875 E27.67027
G1 X-21.355 Y13.546 E27.78631
G1 X-22.978 Y14.894 E27.90236
G1 X-24.005 Y16.737 E28.0184
G1 X-24.296 Y18.827 E28.13447
G1 X-23.813 Y20.881 E28.25053
G1 X-23.383 Y21.509 E28.2924
G1 X-22.621 Y22.621 E28.36654
G1 X-22.003 Y23.044 E28.40774
G1 X-20.881 Y23.813 E28.48255
G1 X-18.827 Y24.296 E28.59861
G1 X-16.737 Y24.005 E28.71468
G1 X-14.894 Y22.978 E28.83073
G1 X-13.546 Y21.355 E28.94678
G1 X-12.875 Y19.355 E29.06281
G0 F3600 X-12.776 Y19.368
G0 X-2.108 Y20.062
G0 X2.108 Y20.062
G0 X6.233 Y19.187
G0 X10.087 Y17.471
G0 X13.498 Y14.991
G0 X16.321 Y11.857
G0 X18.429 Y8.205
G0 X19.733 Y4.194
G0 X20.173 Y0.00
G0 X19.733 Y-4.194
G0 X18.429 Y-8.205
G0 X16.321 Y-11.857
G0 X13.498 Y-14.991
G0 X10.087 Y-17.471
G0 X6.233 Y-19.187
G0 X2.108 Y-20.062
G0 X-2.108 Y-20.062
G0 X-6.233 Y-19.187
G0 X-10.087 Y-17.471
G0 X-13.498 Y-14.991
G0 X-16.321 Y-11.857
G0 X-18.429 Y-8.205
G0 X-19.791 Y-4.206
G0 X-19.694 Y-4.186
G1 F1800 X-20.133 Y0.00 E29.29432
G1 X-19.694 Y4.186 E29.52583
G1 X-18.393 Y8.189 E29.75735
G1 X-16.289 Y11.834 E29.98884
G1 X-13.472 Y14.962 E30.22038
G1 X-10.067 Y17.437 E30.45192
G1 X-6.221 Y19.149 E30.68347
G1 X-2.104 Y20.023 E30.91497
G1 X2.104 Y20.023 E31.14643
G1 X6.221 Y19.149 E31.37793
G1 X10.067 Y17.437 E31.60948
G1 X13.472 Y14.962 E31.84102
G1 X16.289 Y11.834 E32.07256
G1 X18.393 Y8.189 E32.30405
G1 X19.694 Y4.186 E32.53557
G1 X20.133 Y0.00 E32.76708
G1 X19.694 Y-4.186 E32.99859
G1 X18.393 Y-8.189 E33.23011
G1 X16.289 Y-11.834 E33.4616
G1 X13.472 Y-14.962 E33.69314
G1 X10.067 Y-17.437 E33.92468
G1 X6.221 Y-19.149 E34.15623
G1 X2.104 Y-20.023 E34.38773
G1 X-2.104 Y-20.023 E34.61919
G1 X-6.221 Y-19.149 E34.85069
G1 X-10.067 Y-17.437 E35.08224
G1 X-13.472 Y-14.962 E35.31378
G1 X-16.289 Y-11.834 E35.54532
G1 X-18.393 Y-8.189 E35.77681
G1 X-19.694 Y-4.186 E36.00833
G0 F3600 X-19.791 Y-4.206
G0 X-19.368 Y-12.776
G0 X-19.355 Y-12.875
G1 F1800 X-17.247 Y-12.973 E36.1244
G1 X-15.317 Y-13.825 E36.24045
G1 X-13.825 Y-15.317 E36.3565
G1 X-12.973 Y-17.247 E36.47255
G1 X-12.875 Y-19.355 E36.58862
G1 X-13.546 Y-21.355 E36.70465
G1 X-14.894 Y-22.978 E36.8207
G1 X-16.737 Y-24.005 E36.93675
G1 X-18.827 Y-24.296 E37.05282
G1 X-20.881 Y-23.813 E37.16888
G1 X-22.003 Y-23.044 E37.24369
G1 X-22.621 Y-22.621 E37.28489
G1 X-23.383 Y-21.509 E37.35903
G1 X-23.813 Y-20.881 E37.4009
G1 X-24.296 Y-18.827 E37.51696
G1 X-24.005 Y-16.737 E37.63302
G1 X-22.978 Y-14.894 E37.74907
G1 X-21.355 Y-13.546 E37.86512
G1 X-19.355 Y-12.875 E37.98115
G0 F3600 X-19.368 Y-12.776
G0 X-30.566 Y-3.935
G0 X-30.493 Y-3.868
G1 F1800 X-31.603 Y-2.073 E38.09724
G1 X-31.882 Y-.587 E38.1804
G1 X-31.991 Y0.00 E38.21324
G1 X-31.882 Y0.586 E38.24603
G1 X-31.603 Y2.073 E38.32925
G1 X-30.493 Y3.868 E38.44533
G1 X-28.808 Y5.138 E38.56139
G1 X-26.78 Y5.716 E38.67738
G1 X-24.679 Y5.521 E38.79344
G1 X-22.791 Y4.581 E38.90945
G1 X-21.369 Y3.022 E39.02551
G1 X-20.607 Y1.054 E39.14159
G1 X-20.607 Y-1.054 E39.25754
G1 X-21.369 Y-3.022 E39.37362
G1 X-22.791 Y-4.581 E39.48968
G1 X-24.679 Y-5.521 E39.60569
G1 X-26.78 Y-5.716 E39.72175
G1 X-28.808 Y-5.138 E39.83774
G1 X-30.493 Y-3.868 E39.9538
G0 F3600 X-30.566 Y-3.935
G0 X-19.36 Y-12.836
G0 X-17.238 Y-12.935
G0 X-15.295 Y-13.792
G0 X-13.792 Y-15.295
G0 X-12.935 Y-17.238
G0 X-12.907 Y-17.839
G0 X-3.935 Y-30.566
G0 X-3.868 Y-30.493
G1 F1800 X-5.138 Y-28.808 E40.06985
G1 X-5.716 Y-26.78 E40.18584
G1 X-5.521 Y-24.679 E40.3019
G1 X-4.581 Y-22.791 E40.41791
G1 X-3.022 Y-21.369 E40.53398
G1 X-1.054 Y-20.607 E40.65005
G1 X1.054 Y-20.607 E40.766
G1 X3.022 Y-21.369 E40.88208
G1 X4.581 Y-22.791 E40.99815
G1 X5.521 Y-24.679 E41.11415
G1 X5.716 Y-26.78 E41.23021
G1 X5.138 Y-28.808 E41.3462
G1 X3.868 Y-30.493 E41.46226
G1 X2.073 Y-31.603 E41.57835
G1 X1.176 Y-31.771 E41.62854
G1 X0.00 Y-31.991 E41.69435
G1 X-1.176 Y-31.771 E41.76016
G1 X-2.073 Y-31.603 E41.81035
G1 X-3.868 Y-30.493 E41.92644
G0 F3600 X-3.935 Y-30.566
G0 X-2.087 Y-31.64
G0 X0.00 Y-32.031
G0 X2.087 Y-31.64
G0 X3.894 Y-30.522
G0 X12.776 Y-19.368
G0 X12.875 Y-19.355
G1 F1800 X12.973 Y-17.247 E42.04251
G1 X13.825 Y-15.317 E42.15855
G1 X15.317 Y-13.825 E42.27461
G1 X17.247 Y-12.973 E42.39065
G1 X19.355 Y-12.875 E42.50673
G1 X21.355 Y-13.546 E42.62276
G1 X22.978 Y-14.894 E42.73881
G1 X24.005 Y-16.737 E42.85486
G1 X24.296 Y-18.827 E42.97092
G1 X23.813 Y-20.881 E43.08698
G1 X23.383 Y-21.509 E43.12885
G1 X22.621 Y-22.621 E43.20299
G1 X22.003 Y-23.044 E43.24419
G1 X20.881 Y-23.813 E43.31901
G1 X18.827 Y-24.296 E43.43506
G1 X16.737 Y-24.005 E43.55113
G1 X14.894 Y-22.978 E43.66718
G1 X13.546 Y-21.355 E43.78323
G1 X12.875 Y-19.355 E43.89926
G0 F3600 X12.776 Y-19.368
G0 X12.935 Y-17.238
G0 X13.792 Y-15.295
G0 X15.295 Y-13.792
G0 X28.825 Y-5.173
G0 X30.522 Y-3.894
G0 X31.64 Y-2.087
G0 X32.262 Y-0.03
G0 X32.361 Y-0.039
G1 F1800 X32.366 Y0.00 E43.90142
G1 X32.362 Y0.038 E43.90353
G1 X32.3 Y0.631 E43.93632
G1 X31.658 Y6.731 E44.2737
G1 X29.569 Y13.163 E44.64568
G1 X26.184 Y19.025 E45.01801
G1 X23.703 Y21.78 E45.22193
G1 X22.801 Y22.782 E45.29609
G1 X22.3 Y23.339 E45.33729
G1 X21.657 Y24.053 E45.39014
G1 X16.184 Y28.03 E45.76227
G1 X9.999 Y30.783 E46.13465
G1 X3.384 Y32.189 E46.50662
G1 X1.196 Y32.189 E46.62697
G1 X0.00 Y32.189 E46.67544
G1 X-1.196 Y32.189 E46.72392
G1 X-3.384 Y32.189 E46.84426
G1 X-9.999 Y30.783 E47.21624
G1 X-16.184 Y28.03 E47.58862
G1 X-21.657 Y24.053 E47.96074
G1 X-22.299 Y23.34 E48.01352
G1 X-22.8 Y22.783 E48.04601
G1 X-23.702 Y21.781 E48.1044
G1 X-26.184 Y19.025 E48.3084
G1 X-29.569 Y13.163 E48.68073
G1 X-31.658 Y6.731 E49.05271
G1 X-32.299 Y0.631 E49.39008
G1 X-32.361 Y0.039 E49.42095
G1 X-32.366 Y0.00 E49.42311
G1 X-32.362 Y-0.038 E49.42521
G1 X-32.3 Y-.631 E49.45613
G1 X-31.658 Y-6.731 E49.79351
G1 X-29.569 Y-13.163 E50.16549
G1 X-26.184 Y-19.025 E50.53782
G1 X-23.703 Y-21.78 E50.74174
G1 X-22.801 Y-22.782 E50.80013
G1 X-22.3 Y-23.339 E50.83262
G1 X-21.657 Y-24.053 E50.88547
G1 X-16.184 Y-28.03 E51.25759
G1 X-9.999 Y-30.783 E51.62997
G1 X-3.384 Y-32.189 E52.00195
G1 X-1.196 Y-32.189 E52.1223
G1 X0.00 Y-32.189 E52.17077
G1 X1.196 Y-32.189 E52.21924
G1 X3.384 Y-32.189 E52.33959
G1 X9.999 Y-30.783 E52.71157
G1 X16.184 Y-28.03 E53.08395
G1 X21.657 Y-24.053 E53.45607
G1 X22.299 Y-23.34 E53.50884
G1 X22.8 Y-22.783 E53.54133
G1 X23.702 Y-21.781 E53.59972
G1 X26.184 Y-19.025 E53.80373
G1 X29.569 Y-13.163 E54.17606
G1 X31.658 Y-6.731 E54.54803
G1 X32.299 Y-.631 E54.8854
G1 X32.361 Y-0.039 E54.91815
G0 F3600 X32.262 Y-0.03
G0 X31.64 Y-2.087
G0 X30.522 Y-3.894
G0 X28.825 Y-5.173
G0 X26.783 Y-5.755
G0 X24.669 Y-5.559
G0 X22.767 Y-4.612
G0 X21.335 Y-3.043
G0 X20.568 Y-1.061
G0 X20.568 Y1.061
G0 X21.335 Y3.043
G0 X22.767 Y4.612
G0 X24.669 Y5.559
G0 X26.783 Y5.755
G0 X28.825 Y5.173
G0 X30.566 Y3.935
G0 X30.493 Y3.868
G1 F1800 X31.603 Y2.073 E55.03423
G1 X31.882 Y0.587 E55.11739
G1 X31.991 Y0.00 E55.14836
G1 X31.882 Y-.586 E55.17927
G1 X31.603 Y-2.073 E55.26249
G1 X30.493 Y-3.868 E55.37858
G1 X28.808 Y-5.138 E55.49464
G1 X26.78 Y-5.716 E55.61063
G1 X24.679 Y-5.521 E55.72669
G1 X22.791 Y-4.581 E55.84269
G1 X21.369 Y-3.022 E55.95876
G1 X20.607 Y-1.054 E56.07484
G1 X20.607 Y1.054 E56.19078
G1 X21.369 Y3.022 E56.30686
G1 X22.791 Y4.581 E56.42293
G1 X24.679 Y5.521 E56.53893
G1 X26.78 Y5.716 E56.65499
G1 X28.808 Y5.138 E56.77098
G1 X30.493 Y3.868 E56.88704
G0 F3600 X30.566 Y3.935
G0 X19.36 Y12.836
G0 X17.238 Y12.935
G0 X15.295 Y13.792
G0 X13.792 Y15.295
G0 X12.935 Y17.238
G0 X12.776 Y19.368
G0 X12.875 Y19.355
G1 F1800 X13.546 Y21.355 E57.00308
G1 X14.894 Y22.978 E57.11912
G1 X16.737 Y24.005 E57.23517
G1 X18.827 Y24.296 E57.35124
G1 X20.881 Y23.813 E57.4673
G1 X22.003 Y23.044 E57.54212
G1 X22.621 Y22.621 E57.57459
G1 X23.383 Y21.509 E57.63297
G1 X23.813 Y20.881 E57.67483
G1 X24.296 Y18.827 E57.79089
G1 X24.005 Y16.737 E57.90696
G1 X22.978 Y14.894 E58.02301
G1 X21.355 Y13.546 E58.13905
G1 X19.355 Y12.875 E58.25509
G1 X17.247 Y12.973 E58.37116
G1 X15.317 Y13.825 E58.4872
G1 X13.825 Y15.317 E58.60326
G1 X12.973 Y17.247 E58.7193
G1 X12.875 Y19.355 E58.83538
G0 F3600 X12.776 Y19.368
G0 X13.512 Y21.374
G0 X14.869 Y23.008
G0 X16.801 Y24.114
G0 X16.873 Y23.6
;TYPE:WALL-OUTER
G1 F1800 X18.807 Y23.869 E58.94278
G1 X20.708 Y23.422 E59.05019
G1 X22.319 Y22.319 E59.15758
G1 X23.422 Y20.708 E59.26497
G1 X23.869 Y18.807 E59.37239
G1 X23.6 Y16.873 E59.47979
G1 X22.649 Y15.167 E59.58722
G1 X21.147 Y13.919 E59.69464
G1 X19.296 Y13.298 E59.80202
G1 X17.345 Y13.389 E59.90945
G1 X15.558 Y14.178 E60.0169
G1 X14.178 Y15.558 E60.12425
G1 X13.389 Y17.345 E60.23169
G1 X13.298 Y19.296 E60.33912
G1 X13.919 Y21.147 E60.44651
G1 X15.167 Y22.649 E60.55392
G1 X16.873 Y23.6 E60.66136
G0 F3600 X17.071 Y23.627
G0 X16.999 Y24.142
G0 X18.828 Y24.335
G0 X20.897 Y23.849
G0 X22.649 Y22.649
G0 X23.849 Y20.897
G0 X24.242 Y19.222
G0 X26.692 Y5.807
G0 X26.741 Y5.291
G1 F1800 X28.618 Y4.756 E60.76871
G1 X30.177 Y3.58 E60.87612
G1 X31.205 Y1.919 E60.98357
G1 X31.564 Y0.00 E61.09095
G1 X31.205 Y-1.919 E61.19833
G1 X30.177 Y-3.58 E61.30578
G1 X28.618 Y-4.756 E61.41319
G1 X26.741 Y-5.291 E61.52054
G1 X24.796 Y-5.11 E61.62799
G1 X23.048 Y-4.24 E61.73539
G1 X21.732 Y-2.797 E61.84281
G1 X21.027 Y-.976 E61.95021
G1 X21.027 Y0.976 E62.05758
G1 X21.732 Y2.797 E62.16499
G1 X23.048 Y4.24 E62.27241
G1 X24.796 Y5.11 E62.37981
G1 X26.741 Y5.291 E62.48725
G0 F3600 X26.933 Y5.237
G0 X27.074 Y5.736
G0 X26.783 Y5.755
G0 X24.669 Y5.559
G0 X22.767 Y4.612
G0 X21.335 Y3.043
G0 X20.568 Y1.061
G0 X19.36 Y-12.836
G0 X17.238 Y-12.935
G0 X15.295 Y-13.792
G0 X13.792 Y-15.295
G0 X12.935 Y-17.238
G0 X12.836 Y-19.36
G0 X13.512 Y-21.374
G0 X14.869 Y-23.008
G0 X16.803 Y-24.115
G0 X16.873 Y-23.6
G1 F1800 X15.167 Y-22.649 E62.59468
G1 X13.919 Y-21.147 E62.7021
G1 X13.298 Y-19.296 E62.80949
G1 X13.389 Y-17.345 E62.91692
G1 X14.178 Y-15.558 E63.02436
G1 X15.558 Y-14.178 E63.13171
G1 X17.345 Y-13.389 E63.23915
G1 X19.296 Y-13.298 E63.34658
G1 X21.147 Y-13.919 E63.45397
G1 X22.649 Y-15.167 E63.56139
G1 X23.6 Y-16.873 E63.66882
G1 X23.869 Y-18.807 E63.77622
G1 X23.422 Y-20.708 E63.88363
G1 X22.319 Y-22.319 E63.99102
G1 X20.708 Y-23.422 E64.09841
G1 X18.807 Y-23.869 E64.20583
G1 X16.873 Y-23.6 E64.31323
G0 F3600 X16.699 Y-23.503
G0 X16.447 Y-23.958
G0 X9.969 Y-30.688
G0 X10.131 Y-31.185
G1 F1800 X16.395 Y-28.396 E64.69038
G1 X21.938 Y-24.368 E65.06727
G1 X26.527 Y-19.272 E65.44447
G1 X29.954 Y-13.337 E65.82143
G1 X32.072 Y-6.816 E66.19856
G1 X32.789 Y0.00 E66.57553
G1 X32.072 Y6.816 E66.95251
G1 X29.954 Y13.337 E67.32963
G1 X26.527 Y19.272 E67.7066
G1 X21.938 Y24.368 E68.0838
G1 X16.395 Y28.396 E68.46068
G1 X10.131 Y31.185 E68.83784
G1 X3.429 Y32.609 E69.2147
G1 X-3.429 Y32.609 E69.59192
G1 X-10.131 Y31.185 E69.96879
G1 X-16.395 Y28.396 E70.34594
G1 X-21.938 Y24.368 E70.72282
G1 X-26.527 Y19.272 E71.10003
G1 X-29.954 Y13.337 E71.47699
G1 X-32.072 Y6.816 E71.85411
G1 X-32.789 Y0.00 E72.23109
G1 X-32.072 Y-6.816 E72.60806
G1 X-29.954 Y-13.337 E72.98519
G1 X-26.527 Y-19.272 E73.36215
G1 X-21.938 Y-24.368 E73.73935
G1 X-16.395 Y-28.396 E74.11624
G1 X-10.131 Y-31.185 E74.49339
G1 X-3.429 Y-32.609 E74.87026
G1 X3.429 Y-32.609 E75.24747
G1 X10.131 Y-31.185 E75.62434
G0 F3600 X10.313 Y-31.104
G0 X10.101 Y-30.629
G0 X0.00 Y-32.031
G0 X-2.087 Y-31.64
G0 X-3.894 Y-30.522
G0 X-5.173 Y-28.825
G0 X-5.79 Y-26.883
G0 X-5.291 Y-26.741
G1 F1800 X-5.11 Y-24.796 E75.73178
